X: 146
T: Açıl Ey Gonce-i Sadberk
C: Hacı Ârif Bey
O: Turkey
F: http://compmusic.upf.edu/node/140
N: hicazkar--sarki--aksak--acil_ey_gonce--haci_arif_bey
N: makam= hicazkar
N: form= sarki
N: usul= aksak = 9/8
M: 9/8
L: 1/16
K: C _1/4B _7/8e _7/8A ^f
Q: 1/4=144
%%MIDI tuningsystem comma53
g4 z2fg g4 g4 {a}gf | g4f2 g2fe {f}edd4z2  | \
w:  *  A çıl  ey  gon  |  *  ce i  sad *  *  *  *  berk   | 
c2Bc d2cd e2de f2g2 fe | 
w:  ah   | 
d4zf2gfe {f}edd3gfa  | g4 z2fg g4 g4 {a}gf | \
w:  *  ah  ya ra *  *  *  *  şır   SAZ  |  *  A çıl  ey  gon  | 
g4f2 g2fe {f}edd4z2  | 
w:  *  ce i  sad *  *  *  *  berk   | 
c2Bc d2cd e2de f2g2 fe | d4zf2gfe {f}edd3gfa  | 
w:  ah   |  *  ah  ya ra *  *  *  *  şır   SAZ  | 
g4 z2=fg g3f _ba{b}ag gf | =f2 efg2 fee2 degf edc2  | 
w:  *  Sa na  gül *  zâr  |  da  *  *  *  *  *  gez *  *  mek   | 
z2Bc d2cd e2dc B2c2 BA | G4zB2cBA {B}AGG3gfa  | 
w:  ah   |  *  ah  ya ra *  *  *  *  şır   SAZ  | 
g4 z2=fg g3f _ba{b}ag gf | =f2 efg2 fee2 degf edc2  | 
w:  *  Sa na  gül *  zâr  |  da  *  *  *  *  *  gez *  *  mek   | 
z2Bc d2cd e2dc B2c2 BA | G4zB2cBA {B}AGG4z2  | 
w:  ah   |  *  ah  ya ra *  *  *  *  şır    | 
b3a a3g g3f f2g4 | ga gff3ee2 degf edc2  | 
w:  Tak *  tı *  ğın  *  gül   |  ru *  *  *  yi *  ne  *  *  pek   | 
c2Bc d2cd e2de f2g2 fe | d4zf2gfe {f}edd4z2  | 
w:  ah   |  *  ah  ya ra *  *  *  *  şır    | 
b3a a3g g3f f2g4 | ga gff3ee2 degf edc2  | 
w:  Tak *  tı *  ğın  *  gül   |  ru *  *  *  yi *  ne  *  *  pek   | 
c2Bc d2cd e2de f2g2 fe | d4zf2gfe {f}edd3gfa  | 
w:  ah   |  *  ah  ya ra *  *  *  *  şır   SAZ  | 
g4 z=f2g g3f _baag gf | =f2 efg2 fee2 degf edc2  | 
w:  *  Gül  ki  gül  *  ru  |  yi *  *  ne  *  *  gül *  *  mek   | 
z2Bc d2cd e2dc B2c2 BA | {zz}G4zB2cBA {B}AGG3gfa  | 
w:  ah   |  *  ah  ya ra *  *  *  *  şır   SAZ  | 
g4 z=f2g g3f _baag gf | =f2 efg2 fee2 degf edc2  | 
w:  *  Gül  ki  gül  *  ru  |  yi *  *  ne  *  *  gül *  *  mek   | 
z2Bc d2cd e2dc B2c2 BA | {zz}G4zB2cBA {B}AGG3gfa  | 
w:  ah   |  *  ah  ya ra *  *  *  *  şır   SAZ  | 
G4 zB2c BA{B}AG G4 z2 | |


